X: 18138
T: Humours Of Castlefin, The
R: reel
M: 4/4
K: Eminor
BE PE2 BEF(B|A)D E/E/D (E/F/)G (Ac)|BE PE2 BEAF|G(BA)F E/E/ FGA|
BE PE2 BEF(B|A)D E/E/D (E/F/)G (Ac)|BE PE2 BE A/A/F|G(BA)F E1/2E1/2 FGA|
{A}B2 eB e(Pgfe)|defg a(f e2)|d {A}B2 eBe(f Pg|e)(aPgf) (Page)e|
dA {A}B2 ede(Pg|fe)de f(gPa)f|d(fef) (gPab)(a|g)f e/f/g fd e/e/d|
BE PE D [EB,]3||

